_src/static/img/icon/time.svg

<svg width="20" height="20" viewBox="0 0 20 20" fill="none" xmlns="http://www.w3.org/2000/svg">
<path d="M10 0C4.51131 0 0.0447977 4.46651 0.000354812 9.93299C-0.0218667 12.5996 1.00032 15.1328 2.88914 17.0216C4.75575 18.9327 7.26677 19.9771 9.93335 19.9993H10C15.4887 19.9993 19.9552 15.5328 19.9997 10.0663C20.0441 4.5554 15.5776 0.0444429 10 0ZM14.711 11.0218H9.91113C9.55558 11.0218 9.26671 10.733 9.26671 10.3774V3.97764C9.26671 3.6221 9.55558 3.33322 9.91113 3.33322C10.2667 3.33322 10.5555 3.6221 10.5555 3.97764V9.733H14.711C15.0665 9.733 15.3554 10.0219 15.3554 10.3774C15.3554 10.733 15.0665 11.0218 14.711 11.0218Z" fill="white"/>
</svg>

<svg width="20" height="20" fill="none" xmlns="http://www.w3.org/2000/svg"><path d="M10 0C4.511 0 .045 4.467 0 9.933a9.85 9.85 0 002.89 7.089c1.866 1.91 4.377 2.955 7.043 2.977H10c5.489 0 9.955-4.466 10-9.933C20.044 4.556 15.578.044 10 0zm4.711 11.022h-4.8a.645.645 0 01-.644-.645v-6.4a.645.645 0 011.289 0v5.756h4.155a.645.645 0 010 1.289z" fill="#fff"/></svg>
